packages/ffe-icons/icons/filled/sm/account_balance_wallet.svg

<svg xmlns="http://www.w3.org/2000/svg" height="20" viewBox="0 -960 960 960" width="20"><path d="M228.309-164.001q-27.008 0-45.658-18.65-18.65-18.65-18.65-45.658v-503.382q0-27.008 18.65-45.658 18.65-18.65 45.658-18.65h503.382q27.008 0 45.658 18.65 18.65 18.65 18.65 45.658v27.694h-279.69q-48.461 0-82.384 33.922-33.922 33.923-33.922 82.384v215.382q0 48.461 33.922 82.384 33.923 33.922 82.384 33.922h279.69v27.694q0 27.308-18.65 45.808t-45.658 18.5H228.309Zm288-144q-27.008 0-45.658-18.65-18.65-18.65-18.65-45.658v-215.382q0-27.008 18.65-45.658 18.65-18.65 45.658-18.65h263.382q27.008 0 45.658 18.65 18.65 18.65 18.65 45.658v215.382q0 27.008-18.65 45.658-18.65 18.65-45.658 18.65H516.309ZM648-420q25 0 42.5-17.5T708-480q0-25-17.5-42.5T648-540q-25 0-42.5 17.5T588-480q0 25 17.5 42.5T648-420Z"/></svg>

<svg xmlns="http://www.w3.org/2000/svg" height="20" viewBox="0 -960 960 960" width="20"><path d="M228.31-164q-27.01 0-45.66-18.65Q164-201.3 164-228.31v-503.38q0-27.01 18.65-45.66Q201.3-796 228.31-796h503.38q27.01 0 45.66 18.65Q796-758.7 796-731.69V-704H516.31q-48.46 0-82.38 33.93Q400-636.15 400-587.69v215.38q0 48.46 33.93 82.38Q467.85-256 516.31-256H796v27.69q0 27.31-18.65 45.81Q758.7-164 731.69-164H228.31Zm288-144q-27.01 0-45.66-18.65Q452-345.3 452-372.31v-215.38q0-27.01 18.65-45.66Q489.3-652 516.31-652h263.38q27.01 0 45.66 18.65Q844-614.7 844-587.69v215.38q0 27.01-18.65 45.66Q806.7-308 779.69-308H516.31ZM648-420q25 0 42.5-17.5T708-480q0-25-17.5-42.5T648-540q-25 0-42.5 17.5T588-480q0 25 17.5 42.5T648-420Z"/></svg>
